X: 1
T: The Bunch Of Green Rushes
R: reel
M: 4/4
L: 1/8
K: Dmix
d|:cAGA ~=F3d|cAGc AddA|cAGA =F2eg|^fdec Ad~d2:|
|:addA cAGA|~=FGAc {d}cAG2|AddA cAGA|1 cdeg {a}gedc:|2 cdeg {a}gece||
|d2^fd adfd|c2ec gcec|d2fd adfd|cAGc ADDA|
|d2fd adfd|c2ec gceg|gf (3gfe fedc|dcAG Add||


Tune 1335	Setting 14684

